X: 3011
T: Jigg.
%R: jig
B: Henry Playford "Apollo's Banquet", London 1687 (5th Edition)
F: https://archive.org/details/apollosbanquetco01rugg
Z: 2017 John Chambers <jc:trillian.mit.edu>
M: 6/4
L: 1/8
K: F
% - - - - - - - - - -
c2 |\
A3GF2 c3dc2 | f6 d3ef2 | e3dc2 (fc3)d2 | G6- G4c2 |\
A3GF2 c3BA2 | (dg3)f2 e3dc2 | (fc3)f2 f4e2 | f6- f4 :|
|: g2 |\
a3ba2 (gd3)g2 | e6 c3de2 | (fc3)d2 B4A2 | G6- G4A2 |\
B3AB2 (Gc3)B2 | (Af3)e2 (db3)a2 | g4f2 g2e4 | f6- f2 |]
% - - - - - - - - - -

%%sep 1 1 500
%%sep 1 1 500

